X:1
T:James Gibb editions
T:Psalm 22-2 (Becker) - Schütz
%%score [ ( 1 2 ) ( 3 4 ) ]
L:1/8
Q:1/4=108
M:3/4
K:F
V:1 treble nm="Soprano Alto"
V:2 treble 
V:3 bass nm="Tenor Bass"
V:4 bass 
V:1
"^Cornelius Becker\n(1561-1604)""^Psalm 22 pt 2, SWV 119""^Heinrich Schütz\n(1585-1672)" D2 | %1
w: ~Ich|
 D4 F2 | G4 B2 | c2 A4 | G4 B2 | c4 _e2 | d4 ||[Q:1/4=107][Q:1/4=107] c2 | B2 c4 | B6 | B4 d2 | %11
w: will ver-|künd'- gen|in der|G'mein, Herr|Gott Va-|ter,|den|Na- men|dein|* und|
 c4 c2 | f4 _e2 | d2 c4 | d4 | B2 | A4 G2 | c4 B2 | A2 G4 | F4 F2 | (G2 A2 B2 | A2 G2 F2 | %22
w: rüh- men|dei- ne|gro- ße|Kraft|in|mei- ner|lie- ben|Bru- der-|schaft, Hal-|le\- * *||
 G2 F2) E2 | D6- | D4 |] %25
w: * * lu-|ja.||
V:2
 A,2 | A,4 D2 | D4 D2 | _E2 D4 | D4 D2 | F4 G2 | F4 || _E2 | D2 F4 | F6- | F4 F2 | F4 C2 | D4 G2 | %13
 G2 G4 | ^F4 | D2 | D4 D2 | F4 D2 | C2 C4 | C4 D2 | (E2 F2 G2 | F2 E2 C2 | E2 D2) ^C2 | D6- | D4 |] %25
V:3
 F,2 | F,4 B,2 | B,4 G,2 | G,2 ^F,4 | G,4 G,2 | A,4 B,2 | B,4 || G,2 | B,2 A,4 | B,6- | B,4 B,2 | %11
 A,4 G,2 | A,4 C2 | B,2 G,4 | A,4 | %15
"^17. Rühmet den Herren all zugleich in rechter Furcht in seinem Reich,\ner hat das Elend nicht verschmäht, das über mich Betrübten geht,\nHalleluja.\n\n22. Die Völker sollen kommen her, und geben unserm Gott die Ehr,\nihr Dienst dem Herren wohlgefällt, sein Reich geht durch die ganze Welt,\nHalleluja.\n\n23. Keiner mehr als der and're gilt, mit Gütern er sie all erfüllt,\nsowohl die groß und mächtig sein, als die in Kummer gehn herein,\nHalleluja." G,2 | %16
 F,4 G,2 | A,4 F,2 | F,2 E,4 | F,4 A,2 | (C2 C,2 D,2 | F,2 G,2 A,2 | C2 A,2) A,2 | A,6- | A,4 |] %25
V:4
 D,2 | D,4 B,,2 | G,,4 G,,2 | C,2 D,4 | G,,4 G,2 | ^F,4 _E,2 | B,,4 || C,2 | G,2 F,4 | B,,6- | %10
 B,,4 B,,2 | F,4 _E,2 | D,4 C,2 | G,2 _E,4 | D,4 | G,,2 | D,4 G,2 | F,4 B,,2 | F,,2 C,4 | %19
 F,,4 D,2 | (C,2 A,,2 G,,2 | D,2 E,2 F,2 | C,2 D,2) A,,2 | D,6- | D,4 |] %25

